X: 100444
T: LITTLE JIM'S HORNPIPE
R: hornpipe
B: K\"ohler's Violin Repository, v.3, 1885 p.280 #2
F: http://www.archive.org/details/klersviolinrepos03rugg
Z: 2012 John Chambers <jc:trillian.mit.edu>
U: P=!crescendo(!
U: p=!crescendo)!
M: C
L: 1/8
K: Bb
(ud>e) |\
(f>d)g>=e (f>d)g>e | (f>d)g>=e (f>d)B>d | (c>A)d>=B (c>A)!p!d>=B | (c>A)d>=B (cd)e=e |
(f>d)g>=e (f>d)g>e | (f>d)g>=e (f>d)PB>d | c>Ge>cp!f! (AF)dc | B2((3fga) b2 :|
K: D
|: uA2 |\
d2((3ABc) d>fa>f | e2((3Bcd) e>gb>g | !ff!(f>e)d>c (d>!p!c)d>f "_cres,"| (3e(fe (3dcB) A2((3ABc) |
d2((3ABc) d>fa>f | e2((3Bcd) e>gb>g | !pp!(f>e)d>f !f!(eA)Bc | d2!f!((3abc') d'2 :|

%%sep 2 1 500

